X: 13
T: My Mother
T: Air, G
L: 1/16
M: 4/4
K: G
D3C1| B,1G,3 B,1D3 B3G1 A3B1| G3A1 G3E1 E1D3 E3F1| G3G,1 G,3G,1 E4 D3B,1| A,12 D3C1| 
B,1G,3 B,1D3 B3G1 A3B1| G3A1 G3E1 E1D3 E1F3| G3G,1 D1G3 D3B,1 A,3B,1| G,12|| 
G3A1| B3D1 B3A1 G3G,1 B,3D1| E3F1 G3E1 E1D3 G1A3| B3A1 G1E3 D3B,1 A,3G,1| A,12 D3C1| 
B,3G,1 B,1D3 B3G1 A3B1| G3A1 G3E1 E1D3 E1F3| G3G,1 D1G3 D3B,1 A,3B,1| G,12|| 
D: Glenn Graham/Rodney MacDonald, Traditionally Rockin', TR1
